presets/TERRA/Ember.xmp
<x:xmpmeta xmlns:x="adobe:ns:meta/" x:xmptk="HALO+TERRA Generator 1.0">
 <rdf:RDF xmlns:rdf="http://www.w3.org/1999/02/22-rdf-syntax-ns#">
  <rdf:Description rdf:about=""
   xmlns:crs="http://ns.adobe.com/camera-raw-settings/1.0/"
   crs:PresetType="Normal"
   crs:Cluster=""
   crs:UUID="1B6EA6B4D805405BAA2542C6FD676D8E"
   crs:SupportsAmount="False"
   crs:SupportsColor="True"
   crs:SupportsMonochrome="False"
   crs:SupportsHighDynamicRange="True"
   crs:SupportsNormalDynamicRange="True"
   crs:SupportsSceneReferred="True"
   crs:SupportsOutputReferred="True"
   crs:CameraModelRestriction=""
   crs:Copyright=""
   crs:ContactInfo=""
   crs:Version="16.0"
   crs:ProcessVersion="15.4"
   crs:HasSettings="True"
   crs:CameraProfile="Adobe Landscape"
   crs:Exposure2012="0.00"
   crs:Contrast2012="16"
   crs:Highlights2012="-28"
   crs:Shadows2012="24"
   crs:Whites2012="8"
   crs:Blacks2012="-10"
   crs:Texture="16"
   crs:Clarity2012="14"
   crs:Dehaze="14"
   crs:Vibrance="14"
   crs:Saturation="0"
   crs:HueAdjustmentRed="-2"
   crs:HueAdjustmentOrange="2"
   crs:HueAdjustmentYellow="-8"
   crs:HueAdjustmentGreen="-14"
   crs:HueAdjustmentAqua="2"
   crs:HueAdjustmentBlue="8"
   crs:SaturationAdjustmentRed="10"
   crs:SaturationAdjustmentOrange="12"
   crs:SaturationAdjustmentYellow="8"
   crs:SaturationAdjustmentGreen="-12"
   crs:SaturationAdjustmentAqua="4"
   crs:SaturationAdjustmentBlue="14"
   crs:SaturationAdjustmentMagenta="4"
   crs:LuminanceAdjustmentRed="-2"
   crs:LuminanceAdjustmentOrange="2"
   crs:LuminanceAdjustmentYellow="2"
   crs:LuminanceAdjustmentGreen="-4"
   crs:LuminanceAdjustmentBlue="-10"
   crs:SplitToningShadowHue="35"
   crs:SplitToningShadowSaturation="10"
   crs:SplitToningHighlightHue="42"
   crs:SplitToningHighlightSaturation="16"
   crs:SplitToningBalance="6"
   crs:ColorGradeMidtoneHue="38"
   crs:ColorGradeMidtoneSat="8"
   crs:ColorGradeMidtoneLum="0"
   crs:ColorGradeShadowLum="0"
   crs:ColorGradeHighlightLum="0"
   crs:ColorGradeGlobalHue="0"
   crs:ColorGradeGlobalSat="0"
   crs:ColorGradeGlobalLum="0"
   crs:ColorGradeBlending="55"
   crs:ShadowTint="6"
   crs:RedHue="10"
   crs:RedSaturation="8"
   crs:GreenHue="-10"
   crs:BlueHue="8"
   crs:BlueSaturation="24"
   crs:GrainAmount="8"
   crs:GrainSize="20"
   crs:GrainFrequency="50"
   crs:PostCropVignetteAmount="-12"
   crs:PostCropVignetteMidpoint="50"
   crs:PostCropVignetteFeather="50"
   crs:PostCropVignetteRoundness="0"
   crs:PostCropVignetteStyle="1"
   crs:PostCropVignetteHighlightContrast="0">
   <crs:Name>
    <rdf:Alt>
     <rdf:li xml:lang="x-default">Ember</rdf:li>
    </rdf:Alt>
   </crs:Name>
   <crs:Group>
    <rdf:Alt>
     <rdf:li xml:lang="x-default">TERRA</rdf:li>
    </rdf:Alt>
   </crs:Group>
   <crs:Description>
    <rdf:Alt>
     <rdf:li xml:lang="x-default">Desert / canyon / autumn. Red-gold earth against a deep complementary blue sky.</rdf:li>
    </rdf:Alt>
   </crs:Description>
   <crs:ToneCurvePV2012>
    <rdf:Seq>
      <rdf:li>0, 8</rdf:li>
      <rdf:li>58, 46</rdf:li>
      <rdf:li>128, 130</rdf:li>
      <rdf:li>196, 210</rdf:li>
      <rdf:li>255, 250</rdf:li>
    </rdf:Seq>
   </crs:ToneCurvePV2012>
  </rdf:Description>
 </rdf:RDF>
</x:xmpmeta>
