presets/TERRA/Frost.xmp
<x:xmpmeta xmlns:x="adobe:ns:meta/" x:xmptk="HALO+TERRA Generator 1.0">
 <rdf:RDF xmlns:rdf="http://www.w3.org/1999/02/22-rdf-syntax-ns#">
  <rdf:Description rdf:about=""
   xmlns:crs="http://ns.adobe.com/camera-raw-settings/1.0/"
   crs:PresetType="Normal"
   crs:Cluster=""
   crs:UUID="E7CA7357C9E749DCBAFA2829824EF621"
   crs:SupportsAmount="False"
   crs:SupportsColor="True"
   crs:SupportsMonochrome="False"
   crs:SupportsHighDynamicRange="True"
   crs:SupportsNormalDynamicRange="True"
   crs:SupportsSceneReferred="True"
   crs:SupportsOutputReferred="True"
   crs:CameraModelRestriction=""
   crs:Copyright=""
   crs:ContactInfo=""
   crs:Version="16.0"
   crs:ProcessVersion="15.4"
   crs:HasSettings="True"
   crs:CameraProfile="Adobe Color"
   crs:Exposure2012="0.20"
   crs:Contrast2012="12"
   crs:Highlights2012="-35"
   crs:Shadows2012="20"
   crs:Whites2012="12"
   crs:Blacks2012="-8"
   crs:Texture="12"
   crs:Clarity2012="10"
   crs:Dehaze="12"
   crs:Vibrance="10"
   crs:Saturation="-8"
   crs:HueAdjustmentRed="2"
   crs:HueAdjustmentOrange="2"
   crs:HueAdjustmentYellow="4"
   crs:HueAdjustmentGreen="6"
   crs:HueAdjustmentAqua="-2"
   crs:HueAdjustmentBlue="4"
   crs:HueAdjustmentPurple="4"
   crs:SaturationAdjustmentRed="-4"
   crs:SaturationAdjustmentOrange="-6"
   crs:SaturationAdjustmentYellow="-18"
   crs:SaturationAdjustmentGreen="-20"
   crs:SaturationAdjustmentAqua="8"
   crs:SaturationAdjustmentBlue="16"
   crs:SaturationAdjustmentPurple="6"
   crs:LuminanceAdjustmentRed="-2"
   crs:LuminanceAdjustmentYellow="4"
   crs:LuminanceAdjustmentGreen="-2"
   crs:LuminanceAdjustmentAqua="-4"
   crs:LuminanceAdjustmentBlue="-10"
   crs:SplitToningShadowHue="220"
   crs:SplitToningShadowSaturation="18"
   crs:SplitToningHighlightHue="45"
   crs:SplitToningHighlightSaturation="6"
   crs:SplitToningBalance="-6"
   crs:ColorGradeMidtoneHue="215"
   crs:ColorGradeMidtoneSat="4"
   crs:ColorGradeMidtoneLum="0"
   crs:ColorGradeShadowLum="-2"
   crs:ColorGradeHighlightLum="0"
   crs:ColorGradeGlobalHue="0"
   crs:ColorGradeGlobalSat="0"
   crs:ColorGradeGlobalLum="0"
   crs:ColorGradeBlending="45"
   crs:ShadowTint="6"
   crs:RedHue="2"
   crs:GreenHue="6"
   crs:GreenSaturation="-6"
   crs:BlueHue="4"
   crs:BlueSaturation="28"
   crs:GrainAmount="6"
   crs:GrainSize="20"
   crs:GrainFrequency="50"
   crs:PostCropVignetteAmount="-10"
   crs:PostCropVignetteMidpoint="50"
   crs:PostCropVignetteFeather="50"
   crs:PostCropVignetteRoundness="0"
   crs:PostCropVignetteStyle="1"
   crs:PostCropVignetteHighlightContrast="0">
   <crs:Name>
    <rdf:Alt>
     <rdf:li xml:lang="x-default">Frost</rdf:li>
    </rdf:Alt>
   </crs:Name>
   <crs:Group>
    <rdf:Alt>
     <rdf:li xml:lang="x-default">TERRA</rdf:li>
    </rdf:Alt>
   </crs:Group>
   <crs:Description>
    <rdf:Alt>
     <rdf:li xml:lang="x-default">Snow / winter. Clean cool whites, crisp detail, blue shadows.</rdf:li>
    </rdf:Alt>
   </crs:Description>
   <crs:ToneCurvePV2012>
    <rdf:Seq>
      <rdf:li>0, 4</rdf:li>
      <rdf:li>58, 44</rdf:li>
      <rdf:li>128, 130</rdf:li>
      <rdf:li>196, 210</rdf:li>
      <rdf:li>255, 252</rdf:li>
    </rdf:Seq>
   </crs:ToneCurvePV2012>
  </rdf:Description>
 </rdf:RDF>
</x:xmpmeta>
