presets/TERRA/Goldveil.xmp
<x:xmpmeta xmlns:x="adobe:ns:meta/" x:xmptk="HALO+TERRA Generator 1.0">
 <rdf:RDF xmlns:rdf="http://www.w3.org/1999/02/22-rdf-syntax-ns#">
  <rdf:Description rdf:about=""
   xmlns:crs="http://ns.adobe.com/camera-raw-settings/1.0/"
   crs:PresetType="Normal"
   crs:Cluster=""
   crs:UUID="AC21F6B7F6474B169DC7292441CB9BDF"
   crs:SupportsAmount="False"
   crs:SupportsColor="True"
   crs:SupportsMonochrome="False"
   crs:SupportsHighDynamicRange="True"
   crs:SupportsNormalDynamicRange="True"
   crs:SupportsSceneReferred="True"
   crs:SupportsOutputReferred="True"
   crs:CameraModelRestriction=""
   crs:Copyright=""
   crs:ContactInfo=""
   crs:Version="16.0"
   crs:ProcessVersion="15.4"
   crs:HasSettings="True"
   crs:CameraProfile="Adobe Landscape"
   crs:Exposure2012="0.10"
   crs:Contrast2012="8"
   crs:Highlights2012="-25"
   crs:Shadows2012="28"
   crs:Whites2012="8"
   crs:Blacks2012="-6"
   crs:Texture="8"
   crs:Clarity2012="8"
   crs:Dehaze="6"
   crs:Vibrance="16"
   crs:Saturation="0"
   crs:HueAdjustmentRed="-2"
   crs:HueAdjustmentOrange="4"
   crs:HueAdjustmentYellow="-6"
   crs:HueAdjustmentGreen="-10"
   crs:HueAdjustmentAqua="2"
   crs:HueAdjustmentBlue="-4"
   crs:SaturationAdjustmentRed="4"
   crs:SaturationAdjustmentOrange="8"
   crs:SaturationAdjustmentYellow="6"
   crs:SaturationAdjustmentGreen="-4"
   crs:SaturationAdjustmentAqua="4"
   crs:SaturationAdjustmentBlue="8"
   crs:SaturationAdjustmentMagenta="6"
   crs:LuminanceAdjustmentOrange="4"
   crs:LuminanceAdjustmentYellow="4"
   crs:LuminanceAdjustmentGreen="2"
   crs:LuminanceAdjustmentBlue="-4"
   crs:SplitToningShadowHue="35"
   crs:SplitToningShadowSaturation="8"
   crs:SplitToningHighlightHue="45"
   crs:SplitToningHighlightSaturation="16"
   crs:SplitToningBalance="6"
   crs:ColorGradeMidtoneHue="40"
   crs:ColorGradeMidtoneSat="8"
   crs:ColorGradeMidtoneLum="0"
   crs:ColorGradeShadowLum="0"
   crs:ColorGradeHighlightLum="0"
   crs:ColorGradeGlobalHue="0"
   crs:ColorGradeGlobalSat="0"
   crs:ColorGradeGlobalLum="0"
   crs:ColorGradeBlending="55"
   crs:ShadowTint="6"
   crs:RedHue="6"
   crs:RedSaturation="4"
   crs:GreenHue="-8"
   crs:BlueHue="4"
   crs:BlueSaturation="18"
   crs:GrainAmount="8"
   crs:GrainSize="20"
   crs:GrainFrequency="50"
   crs:PostCropVignetteAmount="-8"
   crs:PostCropVignetteMidpoint="50"
   crs:PostCropVignetteFeather="50"
   crs:PostCropVignetteRoundness="0"
   crs:PostCropVignetteStyle="1"
   crs:PostCropVignetteHighlightContrast="0">
   <crs:Name>
    <rdf:Alt>
     <rdf:li xml:lang="x-default">Goldveil</rdf:li>
    </rdf:Alt>
   </crs:Name>
   <crs:Group>
    <rdf:Alt>
     <rdf:li xml:lang="x-default">TERRA</rdf:li>
    </rdf:Alt>
   </crs:Group>
   <crs:Description>
    <rdf:Alt>
     <rdf:li xml:lang="x-default">Golden hour / sunrise. Warm light wrapping the whole scene.</rdf:li>
    </rdf:Alt>
   </crs:Description>
   <crs:ToneCurvePV2012>
    <rdf:Seq>
      <rdf:li>0, 8</rdf:li>
      <rdf:li>60, 50</rdf:li>
      <rdf:li>128, 130</rdf:li>
      <rdf:li>196, 210</rdf:li>
      <rdf:li>255, 250</rdf:li>
    </rdf:Seq>
   </crs:ToneCurvePV2012>
  </rdf:Description>
 </rdf:RDF>
</x:xmpmeta>
