presets/TERRA/Nocturne.xmp
<x:xmpmeta xmlns:x="adobe:ns:meta/" x:xmptk="HALO+TERRA Generator 1.0">
 <rdf:RDF xmlns:rdf="http://www.w3.org/1999/02/22-rdf-syntax-ns#">
  <rdf:Description rdf:about=""
   xmlns:crs="http://ns.adobe.com/camera-raw-settings/1.0/"
   crs:PresetType="Normal"
   crs:Cluster=""
   crs:UUID="DF33BAE4342845B5B5BF179D6AEA8370"
   crs:SupportsAmount="False"
   crs:SupportsColor="True"
   crs:SupportsMonochrome="False"
   crs:SupportsHighDynamicRange="True"
   crs:SupportsNormalDynamicRange="True"
   crs:SupportsSceneReferred="True"
   crs:SupportsOutputReferred="True"
   crs:CameraModelRestriction=""
   crs:Copyright=""
   crs:ContactInfo=""
   crs:Version="16.0"
   crs:ProcessVersion="15.4"
   crs:HasSettings="True"
   crs:CameraProfile="Adobe Color"
   crs:Exposure2012="0.10"
   crs:Contrast2012="14"
   crs:Highlights2012="-20"
   crs:Shadows2012="10"
   crs:Whites2012="-6"
   crs:Blacks2012="-16"
   crs:Texture="6"
   crs:Clarity2012="8"
   crs:Dehaze="10"
   crs:Vibrance="14"
   crs:Saturation="-6"
   crs:HueAdjustmentRed="2"
   crs:HueAdjustmentOrange="2"
   crs:HueAdjustmentYellow="4"
   crs:HueAdjustmentGreen="6"
   crs:HueAdjustmentAqua="-4"
   crs:HueAdjustmentBlue="4"
   crs:HueAdjustmentPurple="2"
   crs:SaturationAdjustmentRed="-4"
   crs:SaturationAdjustmentOrange="-6"
   crs:SaturationAdjustmentYellow="-14"
   crs:SaturationAdjustmentGreen="-16"
   crs:SaturationAdjustmentAqua="10"
   crs:SaturationAdjustmentBlue="20"
   crs:SaturationAdjustmentPurple="12"
   crs:SaturationAdjustmentMagenta="6"
   crs:LuminanceAdjustmentRed="-4"
   crs:LuminanceAdjustmentYellow="-4"
   crs:LuminanceAdjustmentGreen="-4"
   crs:LuminanceAdjustmentAqua="-4"
   crs:LuminanceAdjustmentBlue="-14"
   crs:LuminanceAdjustmentPurple="-4"
   crs:SplitToningShadowHue="230"
   crs:SplitToningShadowSaturation="22"
   crs:SplitToningHighlightHue="40"
   crs:SplitToningHighlightSaturation="8"
   crs:SplitToningBalance="-12"
   crs:ColorGradeMidtoneHue="225"
   crs:ColorGradeMidtoneSat="8"
   crs:ColorGradeMidtoneLum="0"
   crs:ColorGradeShadowLum="-4"
   crs:ColorGradeHighlightLum="0"
   crs:ColorGradeGlobalHue="0"
   crs:ColorGradeGlobalSat="0"
   crs:ColorGradeGlobalLum="0"
   crs:ColorGradeBlending="40"
   crs:ShadowTint="8"
   crs:RedHue="4"
   crs:GreenHue="6"
   crs:GreenSaturation="-6"
   crs:BlueHue="6"
   crs:BlueSaturation="30"
   crs:GrainAmount="4"
   crs:GrainSize="20"
   crs:GrainFrequency="50"
   crs:PostCropVignetteAmount="-18"
   crs:PostCropVignetteMidpoint="50"
   crs:PostCropVignetteFeather="50"
   crs:PostCropVignetteRoundness="0"
   crs:PostCropVignetteStyle="1"
   crs:PostCropVignetteHighlightContrast="0"
   crs:LuminanceSmoothing="25">
   <crs:Name>
    <rdf:Alt>
     <rdf:li xml:lang="x-default">Nocturne</rdf:li>
    </rdf:Alt>
   </crs:Name>
   <crs:Group>
    <rdf:Alt>
     <rdf:li xml:lang="x-default">TERRA</rdf:li>
    </rdf:Alt>
   </crs:Group>
   <crs:Description>
    <rdf:Alt>
     <rdf:li xml:lang="x-default">Blue hour / night / astro. Deep night sky with a warm foreground anchor.</rdf:li>
    </rdf:Alt>
   </crs:Description>
   <crs:ToneCurvePV2012>
    <rdf:Seq>
      <rdf:li>0, 8</rdf:li>
      <rdf:li>48, 30</rdf:li>
      <rdf:li>128, 128</rdf:li>
      <rdf:li>206, 218</rdf:li>
      <rdf:li>255, 250</rdf:li>
    </rdf:Seq>
   </crs:ToneCurvePV2012>
  </rdf:Description>
 </rdf:RDF>
</x:xmpmeta>
