presets/TERRA/Tide.xmp
<x:xmpmeta xmlns:x="adobe:ns:meta/" x:xmptk="HALO+TERRA Generator 1.0">
 <rdf:RDF xmlns:rdf="http://www.w3.org/1999/02/22-rdf-syntax-ns#">
  <rdf:Description rdf:about=""
   xmlns:crs="http://ns.adobe.com/camera-raw-settings/1.0/"
   crs:PresetType="Normal"
   crs:Cluster=""
   crs:UUID="45AE92391D6E46918C279621026817E1"
   crs:SupportsAmount="False"
   crs:SupportsColor="True"
   crs:SupportsMonochrome="False"
   crs:SupportsHighDynamicRange="True"
   crs:SupportsNormalDynamicRange="True"
   crs:SupportsSceneReferred="True"
   crs:SupportsOutputReferred="True"
   crs:CameraModelRestriction=""
   crs:Copyright=""
   crs:ContactInfo=""
   crs:Version="16.0"
   crs:ProcessVersion="15.4"
   crs:HasSettings="True"
   crs:CameraProfile="Adobe Landscape"
   crs:Exposure2012="0.10"
   crs:Contrast2012="14"
   crs:Highlights2012="-30"
   crs:Shadows2012="26"
   crs:Whites2012="14"
   crs:Blacks2012="-8"
   crs:Texture="10"
   crs:Clarity2012="12"
   crs:Dehaze="14"
   crs:Vibrance="20"
   crs:Saturation="-2"
   crs:HueAdjustmentRed="2"
   crs:HueAdjustmentOrange="4"
   crs:HueAdjustmentYellow="-4"
   crs:HueAdjustmentGreen="-6"
   crs:HueAdjustmentAqua="-4"
   crs:HueAdjustmentBlue="-8"
   crs:SaturationAdjustmentOrange="4"
   crs:SaturationAdjustmentGreen="6"
   crs:SaturationAdjustmentAqua="18"
   crs:SaturationAdjustmentBlue="18"
   crs:LuminanceAdjustmentOrange="4"
   crs:LuminanceAdjustmentYellow="2"
   crs:LuminanceAdjustmentGreen="4"
   crs:LuminanceAdjustmentAqua="6"
   crs:LuminanceAdjustmentBlue="-4"
   crs:SplitToningShadowHue="195"
   crs:SplitToningShadowSaturation="14"
   crs:SplitToningHighlightHue="50"
   crs:SplitToningHighlightSaturation="10"
   crs:SplitToningBalance="2"
   crs:ColorGradeMidtoneHue="200"
   crs:ColorGradeMidtoneSat="6"
   crs:ColorGradeMidtoneLum="0"
   crs:ColorGradeShadowLum="-2"
   crs:ColorGradeHighlightLum="0"
   crs:ColorGradeGlobalHue="0"
   crs:ColorGradeGlobalSat="0"
   crs:ColorGradeGlobalLum="0"
   crs:ColorGradeBlending="50"
   crs:ShadowTint="4"
   crs:RedHue="6"
   crs:RedSaturation="4"
   crs:GreenHue="-6"
   crs:GreenSaturation="4"
   crs:BlueHue="-4"
   crs:BlueSaturation="32"
   crs:GrainAmount="4"
   crs:GrainSize="20"
   crs:GrainFrequency="50"
   crs:PostCropVignetteAmount="-10"
   crs:PostCropVignetteMidpoint="50"
   crs:PostCropVignetteFeather="50"
   crs:PostCropVignetteRoundness="0"
   crs:PostCropVignetteStyle="1"
   crs:PostCropVignetteHighlightContrast="0">
   <crs:Name>
    <rdf:Alt>
     <rdf:li xml:lang="x-default">Tide</rdf:li>
    </rdf:Alt>
   </crs:Name>
   <crs:Group>
    <rdf:Alt>
     <rdf:li xml:lang="x-default">TERRA</rdf:li>
    </rdf:Alt>
   </crs:Group>
   <crs:Description>
    <rdf:Alt>
     <rdf:li xml:lang="x-default">Coast / tropical. Turquoise water, bright clean sky, warm sand.</rdf:li>
    </rdf:Alt>
   </crs:Description>
   <crs:ToneCurvePV2012>
    <rdf:Seq>
      <rdf:li>0, 6</rdf:li>
      <rdf:li>58, 46</rdf:li>
      <rdf:li>128, 132</rdf:li>
      <rdf:li>196, 212</rdf:li>
      <rdf:li>255, 252</rdf:li>
    </rdf:Seq>
   </crs:ToneCurvePV2012>
  </rdf:Description>
 </rdf:RDF>
</x:xmpmeta>
