presets/TERRA/Verdant.xmp
<x:xmpmeta xmlns:x="adobe:ns:meta/" x:xmptk="HALO+TERRA Generator 1.0">
 <rdf:RDF xmlns:rdf="http://www.w3.org/1999/02/22-rdf-syntax-ns#">
  <rdf:Description rdf:about=""
   xmlns:crs="http://ns.adobe.com/camera-raw-settings/1.0/"
   crs:PresetType="Normal"
   crs:Cluster=""
   crs:UUID="43F0F84E53D445F9B78488B648357E60"
   crs:SupportsAmount="False"
   crs:SupportsColor="True"
   crs:SupportsMonochrome="False"
   crs:SupportsHighDynamicRange="True"
   crs:SupportsNormalDynamicRange="True"
   crs:SupportsSceneReferred="True"
   crs:SupportsOutputReferred="True"
   crs:CameraModelRestriction=""
   crs:Copyright=""
   crs:ContactInfo=""
   crs:Version="16.0"
   crs:ProcessVersion="15.4"
   crs:HasSettings="True"
   crs:CameraProfile="Adobe Landscape"
   crs:Exposure2012="0.05"
   crs:Contrast2012="12"
   crs:Highlights2012="-28"
   crs:Shadows2012="24"
   crs:Whites2012="6"
   crs:Blacks2012="-10"
   crs:Texture="14"
   crs:Clarity2012="12"
   crs:Dehaze="10"
   crs:Vibrance="14"
   crs:Saturation="-4"
   crs:HueAdjustmentRed="2"
   crs:HueAdjustmentOrange="4"
   crs:HueAdjustmentYellow="8"
   crs:HueAdjustmentGreen="-6"
   crs:HueAdjustmentBlue="2"
   crs:SaturationAdjustmentRed="-2"
   crs:SaturationAdjustmentYellow="-4"
   crs:SaturationAdjustmentGreen="10"
   crs:SaturationAdjustmentAqua="4"
   crs:SaturationAdjustmentBlue="6"
   crs:LuminanceAdjustmentRed="-2"
   crs:LuminanceAdjustmentGreen="-4"
   crs:LuminanceAdjustmentAqua="-2"
   crs:LuminanceAdjustmentBlue="-8"
   crs:SplitToningShadowHue="180"
   crs:SplitToningShadowSaturation="10"
   crs:SplitToningHighlightHue="50"
   crs:SplitToningHighlightSaturation="8"
   crs:SplitToningBalance="-4"
   crs:ColorGradeMidtoneHue="120"
   crs:ColorGradeMidtoneSat="4"
   crs:ColorGradeMidtoneLum="0"
   crs:ColorGradeShadowLum="-2"
   crs:ColorGradeHighlightLum="0"
   crs:ColorGradeGlobalHue="0"
   crs:ColorGradeGlobalSat="0"
   crs:ColorGradeGlobalLum="0"
   crs:ColorGradeBlending="50"
   crs:ShadowTint="6"
   crs:RedHue="4"
   crs:GreenHue="-8"
   crs:GreenSaturation="10"
   crs:BlueHue="2"
   crs:BlueSaturation="24"
   crs:GrainAmount="8"
   crs:GrainSize="20"
   crs:GrainFrequency="50"
   crs:PostCropVignetteAmount="-16"
   crs:PostCropVignetteMidpoint="50"
   crs:PostCropVignetteFeather="50"
   crs:PostCropVignetteRoundness="0"
   crs:PostCropVignetteStyle="1"
   crs:PostCropVignetteHighlightContrast="0">
   <crs:Name>
    <rdf:Alt>
     <rdf:li xml:lang="x-default">Verdant</rdf:li>
    </rdf:Alt>
   </crs:Name>
   <crs:Group>
    <rdf:Alt>
     <rdf:li xml:lang="x-default">TERRA</rdf:li>
    </rdf:Alt>
   </crs:Group>
   <crs:Description>
    <rdf:Alt>
     <rdf:li xml:lang="x-default">Forest / jungle. Deep immersive foliage done right, with warm light shafts.</rdf:li>
    </rdf:Alt>
   </crs:Description>
   <crs:ToneCurvePV2012>
    <rdf:Seq>
      <rdf:li>0, 10</rdf:li>
      <rdf:li>58, 44</rdf:li>
      <rdf:li>128, 128</rdf:li>
      <rdf:li>196, 210</rdf:li>
      <rdf:li>255, 250</rdf:li>
    </rdf:Seq>
   </crs:ToneCurvePV2012>
  </rdf:Description>
 </rdf:RDF>
</x:xmpmeta>
