presets/TERRA/Vista.xmp
<x:xmpmeta xmlns:x="adobe:ns:meta/" x:xmptk="HALO+TERRA Generator 1.0">
 <rdf:RDF xmlns:rdf="http://www.w3.org/1999/02/22-rdf-syntax-ns#">
  <rdf:Description rdf:about=""
   xmlns:crs="http://ns.adobe.com/camera-raw-settings/1.0/"
   crs:PresetType="Normal"
   crs:Cluster=""
   crs:UUID="67AEA225025740A39714159883B6B570"
   crs:SupportsAmount="False"
   crs:SupportsColor="True"
   crs:SupportsMonochrome="False"
   crs:SupportsHighDynamicRange="True"
   crs:SupportsNormalDynamicRange="True"
   crs:SupportsSceneReferred="True"
   crs:SupportsOutputReferred="True"
   crs:CameraModelRestriction=""
   crs:Copyright=""
   crs:ContactInfo=""
   crs:Version="16.0"
   crs:ProcessVersion="15.4"
   crs:HasSettings="True"
   crs:CameraProfile="Adobe Landscape"
   crs:Exposure2012="0.00"
   crs:Contrast2012="12"
   crs:Highlights2012="-30"
   crs:Shadows2012="30"
   crs:Whites2012="14"
   crs:Blacks2012="-10"
   crs:Texture="12"
   crs:Clarity2012="12"
   crs:Dehaze="10"
   crs:Vibrance="18"
   crs:Saturation="-2"
   crs:HueAdjustmentRed="2"
   crs:HueAdjustmentOrange="4"
   crs:HueAdjustmentYellow="4"
   crs:HueAdjustmentGreen="-8"
   crs:HueAdjustmentAqua="2"
   crs:HueAdjustmentBlue="4"
   crs:SaturationAdjustmentRed="2"
   crs:SaturationAdjustmentOrange="4"
   crs:SaturationAdjustmentYellow="-2"
   crs:SaturationAdjustmentGreen="6"
   crs:SaturationAdjustmentAqua="8"
   crs:SaturationAdjustmentBlue="12"
   crs:LuminanceAdjustmentRed="-2"
   crs:LuminanceAdjustmentYellow="2"
   crs:LuminanceAdjustmentGreen="6"
   crs:LuminanceAdjustmentBlue="-8"
   crs:SplitToningShadowHue="210"
   crs:SplitToningShadowSaturation="6"
   crs:SplitToningHighlightHue="48"
   crs:SplitToningHighlightSaturation="6"
   crs:SplitToningBalance="0"
   crs:ColorGradeMidtoneHue="0"
   crs:ColorGradeMidtoneSat="0"
   crs:ColorGradeMidtoneLum="0"
   crs:ColorGradeShadowLum="-2"
   crs:ColorGradeHighlightLum="0"
   crs:ColorGradeGlobalHue="0"
   crs:ColorGradeGlobalSat="0"
   crs:ColorGradeGlobalLum="0"
   crs:ColorGradeBlending="50"
   crs:ShadowTint="4"
   crs:RedHue="4"
   crs:GreenHue="-6"
   crs:GreenSaturation="6"
   crs:BlueHue="6"
   crs:BlueSaturation="22"
   crs:PostCropVignetteAmount="-6"
   crs:PostCropVignetteMidpoint="50"
   crs:PostCropVignetteFeather="50"
   crs:PostCropVignetteRoundness="0"
   crs:PostCropVignetteStyle="1"
   crs:PostCropVignetteHighlightContrast="0"
   crs:Sharpness="45"
   crs:SharpenRadius="+1.0"
   crs:SharpenDetail="25"
   crs:SharpenEdgeMasking="0">
   <crs:Name>
    <rdf:Alt>
     <rdf:li xml:lang="x-default">Vista</rdf:li>
    </rdf:Alt>
   </crs:Name>
   <crs:Group>
    <rdf:Alt>
     <rdf:li xml:lang="x-default">TERRA</rdf:li>
    </rdf:Alt>
   </crs:Group>
   <crs:Description>
    <rdf:Alt>
     <rdf:li xml:lang="x-default">Clean natural daylight. True-to-a-great-day, deep sky, lush-but-real foliage.</rdf:li>
    </rdf:Alt>
   </crs:Description>
   <crs:ToneCurvePV2012>
    <rdf:Seq>
      <rdf:li>0, 4</rdf:li>
      <rdf:li>60, 46</rdf:li>
      <rdf:li>128, 130</rdf:li>
      <rdf:li>196, 210</rdf:li>
      <rdf:li>255, 252</rdf:li>
    </rdf:Seq>
   </crs:ToneCurvePV2012>
  </rdf:Description>
 </rdf:RDF>
</x:xmpmeta>
