presets/HALO/Analog 400 - Fair.xmp
<x:xmpmeta xmlns:x="adobe:ns:meta/" x:xmptk="HALO+TERRA Generator 1.0">
 <rdf:RDF xmlns:rdf="http://www.w3.org/1999/02/22-rdf-syntax-ns#">
  <rdf:Description rdf:about=""
   xmlns:crs="http://ns.adobe.com/camera-raw-settings/1.0/"
   crs:PresetType="Normal"
   crs:Cluster=""
   crs:UUID="BEEB9161E51D4FD9A6BA44239612C8BA"
   crs:SupportsAmount="False"
   crs:SupportsColor="True"
   crs:SupportsMonochrome="False"
   crs:SupportsHighDynamicRange="True"
   crs:SupportsNormalDynamicRange="True"
   crs:SupportsSceneReferred="True"
   crs:SupportsOutputReferred="True"
   crs:CameraModelRestriction=""
   crs:Copyright=""
   crs:ContactInfo=""
   crs:Version="16.0"
   crs:ProcessVersion="15.4"
   crs:HasSettings="True"
   crs:CameraProfile="Adobe Color"
   crs:Exposure2012="0.10"
   crs:Contrast2012="-6"
   crs:Highlights2012="-28"
   crs:Shadows2012="28"
   crs:Whites2012="-6"
   crs:Blacks2012="12"
   crs:Texture="-4"
   crs:Clarity2012="0"
   crs:Dehaze="-6"
   crs:Vibrance="6"
   crs:Saturation="-10"
   crs:HueAdjustmentRed="-2"
   crs:HueAdjustmentOrange="2"
   crs:HueAdjustmentYellow="-12"
   crs:HueAdjustmentGreen="24"
   crs:HueAdjustmentAqua="-10"
   crs:HueAdjustmentBlue="6"
   crs:HueAdjustmentMagenta="6"
   crs:SaturationAdjustmentRed="-18"
   crs:SaturationAdjustmentOrange="-14"
   crs:SaturationAdjustmentYellow="-6"
   crs:SaturationAdjustmentGreen="-30"
   crs:SaturationAdjustmentAqua="-16"
   crs:SaturationAdjustmentBlue="-10"
   crs:SaturationAdjustmentMagenta="-8"
   crs:LuminanceAdjustmentRed="4"
   crs:LuminanceAdjustmentOrange="10"
   crs:LuminanceAdjustmentYellow="2"
   crs:LuminanceAdjustmentGreen="-6"
   crs:LuminanceAdjustmentBlue="-6"
   crs:SplitToningShadowHue="200"
   crs:SplitToningShadowSaturation="12"
   crs:SplitToningHighlightHue="46"
   crs:SplitToningHighlightSaturation="12"
   crs:SplitToningBalance="6"
   crs:ColorGradeMidtoneHue="40"
   crs:ColorGradeMidtoneSat="4"
   crs:ColorGradeMidtoneLum="0"
   crs:ColorGradeShadowLum="-2"
   crs:ColorGradeHighlightLum="0"
   crs:ColorGradeGlobalHue="0"
   crs:ColorGradeGlobalSat="0"
   crs:ColorGradeGlobalLum="0"
   crs:ColorGradeBlending="50"
   crs:ShadowTint="6"
   crs:RedHue="10"
   crs:GreenHue="24"
   crs:GreenSaturation="-4"
   crs:BlueHue="-6"
   crs:BlueSaturation="22"
   crs:GrainAmount="28"
   crs:GrainSize="28"
   crs:GrainFrequency="55"
   crs:PostCropVignetteAmount="-10"
   crs:PostCropVignetteMidpoint="50"
   crs:PostCropVignetteFeather="50"
   crs:PostCropVignetteRoundness="0"
   crs:PostCropVignetteStyle="1"
   crs:PostCropVignetteHighlightContrast="0">
   <crs:Name>
    <rdf:Alt>
     <rdf:li xml:lang="x-default">Analog 400 - Fair</rdf:li>
    </rdf:Alt>
   </crs:Name>
   <crs:Group>
    <rdf:Alt>
     <rdf:li xml:lang="x-default">HALO</rdf:li>
    </rdf:Alt>
   </crs:Group>
   <crs:Description>
    <rdf:Alt>
     <rdf:li xml:lang="x-default">Film emulation. Faded, grainy, cross-processed channel curves. [Fair skin]</rdf:li>
    </rdf:Alt>
   </crs:Description>
   <crs:ToneCurvePV2012>
    <rdf:Seq>
      <rdf:li>0, 22</rdf:li>
      <rdf:li>50, 55</rdf:li>
      <rdf:li>128, 128</rdf:li>
      <rdf:li>205, 206</rdf:li>
      <rdf:li>255, 242</rdf:li>
    </rdf:Seq>
   </crs:ToneCurvePV2012>
   <crs:ToneCurvePV2012Red>
    <rdf:Seq>
      <rdf:li>0, 8</rdf:li>
      <rdf:li>128, 128</rdf:li>
      <rdf:li>255, 255</rdf:li>
    </rdf:Seq>
   </crs:ToneCurvePV2012Red>
   <crs:ToneCurvePV2012Blue>
    <rdf:Seq>
      <rdf:li>0, 18</rdf:li>
      <rdf:li>128, 128</rdf:li>
      <rdf:li>255, 238</rdf:li>
    </rdf:Seq>
   </crs:ToneCurvePV2012Blue>
  </rdf:Description>
 </rdf:RDF>
</x:xmpmeta>
