presets/HALO/Honeywash - Fair.xmp
<x:xmpmeta xmlns:x="adobe:ns:meta/" x:xmptk="HALO+TERRA Generator 1.0">
 <rdf:RDF xmlns:rdf="http://www.w3.org/1999/02/22-rdf-syntax-ns#">
  <rdf:Description rdf:about=""
   xmlns:crs="http://ns.adobe.com/camera-raw-settings/1.0/"
   crs:PresetType="Normal"
   crs:Cluster=""
   crs:UUID="34A1ECB7783341699495124CC9C3A658"
   crs:SupportsAmount="False"
   crs:SupportsColor="True"
   crs:SupportsMonochrome="False"
   crs:SupportsHighDynamicRange="True"
   crs:SupportsNormalDynamicRange="True"
   crs:SupportsSceneReferred="True"
   crs:SupportsOutputReferred="True"
   crs:CameraModelRestriction=""
   crs:Copyright=""
   crs:ContactInfo=""
   crs:Version="16.0"
   crs:ProcessVersion="15.4"
   crs:HasSettings="True"
   crs:CameraProfile="Adobe Color"
   crs:Exposure2012="0.15"
   crs:Contrast2012="-8"
   crs:Highlights2012="-36"
   crs:Shadows2012="35"
   crs:Whites2012="6"
   crs:Blacks2012="8"
   crs:Texture="4"
   crs:Clarity2012="5"
   crs:Dehaze="4"
   crs:Vibrance="10"
   crs:Saturation="-4"
   crs:HueAdjustmentRed="0"
   crs:HueAdjustmentOrange="4"
   crs:HueAdjustmentYellow="-10"
   crs:HueAdjustmentGreen="18"
   crs:HueAdjustmentAqua="-12"
   crs:HueAdjustmentBlue="8"
   crs:SaturationAdjustmentRed="-14"
   crs:SaturationAdjustmentOrange="-12"
   crs:SaturationAdjustmentYellow="4"
   crs:SaturationAdjustmentGreen="-22"
   crs:SaturationAdjustmentAqua="-10"
   crs:SaturationAdjustmentBlue="-8"
   crs:LuminanceAdjustmentRed="4"
   crs:LuminanceAdjustmentOrange="12"
   crs:LuminanceAdjustmentYellow="4"
   crs:LuminanceAdjustmentGreen="-4"
   crs:LuminanceAdjustmentBlue="-4"
   crs:SplitToningShadowHue="195"
   crs:SplitToningShadowSaturation="7"
   crs:SplitToningHighlightHue="42"
   crs:SplitToningHighlightSaturation="14"
   crs:SplitToningBalance="5"
   crs:ColorGradeMidtoneHue="40"
   crs:ColorGradeMidtoneSat="6"
   crs:ColorGradeMidtoneLum="0"
   crs:ColorGradeShadowLum="-3"
   crs:ColorGradeHighlightLum="0"
   crs:ColorGradeGlobalHue="0"
   crs:ColorGradeGlobalSat="0"
   crs:ColorGradeGlobalLum="0"
   crs:ColorGradeBlending="55"
   crs:ShadowTint="6"
   crs:RedHue="12"
   crs:RedSaturation="4"
   crs:GreenHue="20"
   crs:BlueSaturation="20"
   crs:ParametricShadows="16"
   crs:ParametricDarks="8"
   crs:ParametricLights="4"
   crs:ParametricHighlights="-8"
   crs:ParametricShadowSplit="25"
   crs:ParametricMidtoneSplit="50"
   crs:ParametricHighlightSplit="75"
   crs:GrainAmount="14"
   crs:GrainSize="22"
   crs:GrainFrequency="50"
   crs:PostCropVignetteAmount="-6"
   crs:PostCropVignetteMidpoint="50"
   crs:PostCropVignetteFeather="50"
   crs:PostCropVignetteRoundness="0"
   crs:PostCropVignetteStyle="1"
   crs:PostCropVignetteHighlightContrast="0">
   <crs:Name>
    <rdf:Alt>
     <rdf:li xml:lang="x-default">Honeywash - Fair</rdf:li>
    </rdf:Alt>
   </crs:Name>
   <crs:Group>
    <rdf:Alt>
     <rdf:li xml:lang="x-default">HALO</rdf:li>
    </rdf:Alt>
   </crs:Group>
   <crs:Description>
    <rdf:Alt>
     <rdf:li xml:lang="x-default">Warm film / nostalgic. Golden highlights, faded matte shadows, olive greens. [Fair skin]</rdf:li>
    </rdf:Alt>
   </crs:Description>
   <crs:ToneCurvePV2012>
    <rdf:Seq>
      <rdf:li>0, 16</rdf:li>
      <rdf:li>60, 60</rdf:li>
      <rdf:li>128, 132</rdf:li>
      <rdf:li>200, 210</rdf:li>
      <rdf:li>255, 248</rdf:li>
    </rdf:Seq>
   </crs:ToneCurvePV2012>
  </rdf:Description>
 </rdf:RDF>
</x:xmpmeta>
