presets/HALO/Sugar - Deep.xmp
<x:xmpmeta xmlns:x="adobe:ns:meta/" x:xmptk="HALO+TERRA Generator 1.0">
 <rdf:RDF xmlns:rdf="http://www.w3.org/1999/02/22-rdf-syntax-ns#">
  <rdf:Description rdf:about=""
   xmlns:crs="http://ns.adobe.com/camera-raw-settings/1.0/"
   crs:PresetType="Normal"
   crs:Cluster=""
   crs:UUID="15FDBCC5D91E4B2F8171CD45C05C6118"
   crs:SupportsAmount="False"
   crs:SupportsColor="True"
   crs:SupportsMonochrome="False"
   crs:SupportsHighDynamicRange="True"
   crs:SupportsNormalDynamicRange="True"
   crs:SupportsSceneReferred="True"
   crs:SupportsOutputReferred="True"
   crs:CameraModelRestriction=""
   crs:Copyright=""
   crs:ContactInfo=""
   crs:Version="16.0"
   crs:ProcessVersion="15.4"
   crs:HasSettings="True"
   crs:CameraProfile="Adobe Color"
   crs:Exposure2012="0.40"
   crs:Contrast2012="-18"
   crs:Highlights2012="-30"
   crs:Shadows2012="60"
   crs:Whites2012="14"
   crs:Blacks2012="24"
   crs:Texture="-12"
   crs:Clarity2012="-10"
   crs:Dehaze="-10"
   crs:Vibrance="8"
   crs:Saturation="-22"
   crs:HueAdjustmentRed="7"
   crs:HueAdjustmentOrange="9"
   crs:HueAdjustmentYellow="10"
   crs:HueAdjustmentGreen="14"
   crs:HueAdjustmentAqua="6"
   crs:HueAdjustmentBlue="14"
   crs:HueAdjustmentPurple="6"
   crs:HueAdjustmentMagenta="4"
   crs:SaturationAdjustmentRed="-12"
   crs:SaturationAdjustmentOrange="-14"
   crs:SaturationAdjustmentYellow="-24"
   crs:SaturationAdjustmentGreen="-36"
   crs:SaturationAdjustmentAqua="-18"
   crs:SaturationAdjustmentBlue="-10"
   crs:SaturationAdjustmentPurple="-6"
   crs:SaturationAdjustmentMagenta="-8"
   crs:LuminanceAdjustmentRed="6"
   crs:LuminanceAdjustmentOrange="11"
   crs:LuminanceAdjustmentYellow="6"
   crs:LuminanceAdjustmentGreen="6"
   crs:LuminanceAdjustmentAqua="6"
   crs:LuminanceAdjustmentBlue="8"
   crs:LuminanceAdjustmentPurple="6"
   crs:LuminanceAdjustmentMagenta="8"
   crs:SplitToningShadowHue="250"
   crs:SplitToningShadowSaturation="12"
   crs:SplitToningHighlightHue="350"
   crs:SplitToningHighlightSaturation="12"
   crs:SplitToningBalance="4"
   crs:ColorGradeMidtoneHue="320"
   crs:ColorGradeMidtoneSat="4"
   crs:ColorGradeMidtoneLum="0"
   crs:ColorGradeShadowLum="4"
   crs:ColorGradeHighlightLum="4"
   crs:ColorGradeGlobalHue="0"
   crs:ColorGradeGlobalSat="0"
   crs:ColorGradeGlobalLum="0"
   crs:ColorGradeBlending="55"
   crs:ShadowTint="12"
   crs:RedHue="4"
   crs:RedSaturation="4"
   crs:GreenHue="10"
   crs:BlueHue="14"
   crs:BlueSaturation="14"
   crs:ParametricShadows="24"
   crs:ParametricDarks="10"
   crs:ParametricShadowSplit="25"
   crs:ParametricMidtoneSplit="50"
   crs:ParametricHighlightSplit="75"
   crs:GrainAmount="8"
   crs:GrainSize="20"
   crs:GrainFrequency="50">
   <crs:Name>
    <rdf:Alt>
     <rdf:li xml:lang="x-default">Sugar - Deep</rdf:li>
    </rdf:Alt>
   </crs:Name>
   <crs:Group>
    <rdf:Alt>
     <rdf:li xml:lang="x-default">HALO</rdf:li>
    </rdf:Alt>
   </crs:Group>
   <crs:Description>
    <rdf:Alt>
     <rdf:li xml:lang="x-default">Feminine pastel / cotton candy. High-key, low saturation, pink+lavender grade. [Deep skin]</rdf:li>
    </rdf:Alt>
   </crs:Description>
   <crs:ToneCurvePV2012>
    <rdf:Seq>
      <rdf:li>0, 24</rdf:li>
      <rdf:li>64, 72</rdf:li>
      <rdf:li>128, 138</rdf:li>
      <rdf:li>192, 206</rdf:li>
      <rdf:li>255, 246</rdf:li>
    </rdf:Seq>
   </crs:ToneCurvePV2012>
  </rdf:Description>
 </rdf:RDF>
</x:xmpmeta>
