presets/HALO/Wanderlust - Deep.xmp
<x:xmpmeta xmlns:x="adobe:ns:meta/" x:xmptk="HALO+TERRA Generator 1.0">
 <rdf:RDF xmlns:rdf="http://www.w3.org/1999/02/22-rdf-syntax-ns#">
  <rdf:Description rdf:about=""
   xmlns:crs="http://ns.adobe.com/camera-raw-settings/1.0/"
   crs:PresetType="Normal"
   crs:Cluster=""
   crs:UUID="13FDF8B6624D4B51B9D9182EB44DF639"
   crs:SupportsAmount="False"
   crs:SupportsColor="True"
   crs:SupportsMonochrome="False"
   crs:SupportsHighDynamicRange="True"
   crs:SupportsNormalDynamicRange="True"
   crs:SupportsSceneReferred="True"
   crs:SupportsOutputReferred="True"
   crs:CameraModelRestriction=""
   crs:Copyright=""
   crs:ContactInfo=""
   crs:Version="16.0"
   crs:ProcessVersion="15.4"
   crs:HasSettings="True"
   crs:CameraProfile="Adobe Vivid"
   crs:Exposure2012="0.10"
   crs:Contrast2012="20"
   crs:Highlights2012="-30"
   crs:Shadows2012="40"
   crs:Whites2012="12"
   crs:Blacks2012="-2"
   crs:Texture="14"
   crs:Clarity2012="12"
   crs:Dehaze="10"
   crs:Vibrance="22"
   crs:Saturation="-6"
   crs:HueAdjustmentRed="5"
   crs:HueAdjustmentOrange="7"
   crs:HueAdjustmentYellow="-12"
   crs:HueAdjustmentGreen="30"
   crs:HueAdjustmentAqua="-16"
   crs:HueAdjustmentBlue="-10"
   crs:SaturationAdjustmentRed="0"
   crs:SaturationAdjustmentOrange="10"
   crs:SaturationAdjustmentYellow="-10"
   crs:SaturationAdjustmentGreen="-20"
   crs:SaturationAdjustmentAqua="18"
   crs:SaturationAdjustmentBlue="20"
   crs:LuminanceAdjustmentOrange="7"
   crs:LuminanceAdjustmentYellow="2"
   crs:LuminanceAdjustmentGreen="-4"
   crs:LuminanceAdjustmentAqua="4"
   crs:LuminanceAdjustmentBlue="-4"
   crs:SplitToningShadowHue="195"
   crs:SplitToningShadowSaturation="22"
   crs:SplitToningHighlightHue="38"
   crs:SplitToningHighlightSaturation="16"
   crs:SplitToningBalance="0"
   crs:ColorGradeMidtoneHue="200"
   crs:ColorGradeMidtoneSat="6"
   crs:ColorGradeMidtoneLum="0"
   crs:ColorGradeShadowLum="-2"
   crs:ColorGradeHighlightLum="0"
   crs:ColorGradeGlobalHue="0"
   crs:ColorGradeGlobalSat="0"
   crs:ColorGradeGlobalLum="0"
   crs:ColorGradeBlending="50"
   crs:ShadowTint="8"
   crs:RedHue="6"
   crs:RedSaturation="12"
   crs:GreenHue="22"
   crs:GreenSaturation="-4"
   crs:BlueHue="10"
   crs:BlueSaturation="35"
   crs:GrainAmount="6"
   crs:GrainSize="20"
   crs:GrainFrequency="50"
   crs:PostCropVignetteAmount="-14"
   crs:PostCropVignetteMidpoint="50"
   crs:PostCropVignetteFeather="50"
   crs:PostCropVignetteRoundness="0"
   crs:PostCropVignetteStyle="1"
   crs:PostCropVignetteHighlightContrast="0">
   <crs:Name>
    <rdf:Alt>
     <rdf:li xml:lang="x-default">Wanderlust - Deep</rdf:li>
    </rdf:Alt>
   </crs:Name>
   <crs:Group>
    <rdf:Alt>
     <rdf:li xml:lang="x-default">HALO</rdf:li>
    </rdf:Alt>
   </crs:Group>
   <crs:Description>
    <rdf:Alt>
     <rdf:li xml:lang="x-default">Orange &amp; teal travel viral. Vivid complementary split; protect skin separately. [Deep skin]</rdf:li>
    </rdf:Alt>
   </crs:Description>
   <crs:ToneCurvePV2012>
    <rdf:Seq>
      <rdf:li>0, 10</rdf:li>
      <rdf:li>56, 42</rdf:li>
      <rdf:li>128, 130</rdf:li>
      <rdf:li>196, 212</rdf:li>
      <rdf:li>255, 250</rdf:li>
    </rdf:Seq>
   </crs:ToneCurvePV2012>
  </rdf:Description>
 </rdf:RDF>
</x:xmpmeta>
