presets/HALO/Toolkit/Background Color Balancer.xmp
<x:xmpmeta xmlns:x="adobe:ns:meta/" x:xmptk="HALO+TERRA Generator 1.0">
 <rdf:RDF xmlns:rdf="http://www.w3.org/1999/02/22-rdf-syntax-ns#">
  <rdf:Description rdf:about=""
   xmlns:crs="http://ns.adobe.com/camera-raw-settings/1.0/"
   crs:PresetType="Normal"
   crs:Cluster=""
   crs:UUID="5826FC911F8A41C78C87736595903A87"
   crs:SupportsAmount="False"
   crs:SupportsColor="True"
   crs:SupportsMonochrome="False"
   crs:SupportsHighDynamicRange="True"
   crs:SupportsNormalDynamicRange="True"
   crs:SupportsSceneReferred="True"
   crs:SupportsOutputReferred="True"
   crs:CameraModelRestriction=""
   crs:Copyright=""
   crs:ContactInfo=""
   crs:Version="16.0"
   crs:ProcessVersion="15.4"
   crs:HasSettings="True"
   crs:SaturationAdjustmentGreen="-25"
   crs:SaturationAdjustmentAqua="-15"
   crs:SaturationAdjustmentBlue="-15">
   <crs:Name>
    <rdf:Alt>
     <rdf:li xml:lang="x-default">Background Color Balancer</rdf:li>
    </rdf:Alt>
   </crs:Name>
   <crs:Group>
    <rdf:Alt>
     <rdf:li xml:lang="x-default">HALO Toolkit</rdf:li>
    </rdf:Alt>
   </crs:Group>
   <crs:Description>
    <rdf:Alt>
     <rdf:li xml:lang="x-default">Mute competing colors so the subject pops. Best on a background mask.</rdf:li>
    </rdf:Alt>
   </crs:Description>
  </rdf:Description>
 </rdf:RDF>
</x:xmpmeta>
